assets/web/icons/lock-off.svg

<svg width="24" height="24" viewBox="0 0 24 24" fill="none" xmlns="http://www.w3.org/2000/svg">
<path d="M6.00005 22C5.45005 22 4.97921 21.8042 4.58755 21.4125C4.19588 21.0208 4.00005 20.55 4.00005 20V10C4.00005 9.45 4.19588 8.97917 4.58755 8.5875C4.79881 8.37623 5.03312 8.22194 5.29045 8.12463L1.33293 4.16711C0.942408 3.77658 0.942408 3.14342 1.33293 2.75289C1.72346 2.36237 2.35662 2.36237 2.74715 2.75289L7.00005 7.0058V6.99425L20 19.9942V20L20 20.0058L21.2471 21.2529C21.6377 21.6434 21.6377 22.2766 21.2471 22.6671C20.8566 23.0577 20.2235 23.0577 19.8329 22.6671L18.9371 21.7713C18.6556 21.9238 18.3432 22 18 22H6.00005Z" fill="currentColor"/>
<path d="M20 17.1658V10C20 9.45 19.8042 8.97917 19.4125 8.5875C19.0209 8.19583 18.55 8 18 8H17V6C17 4.61667 16.5125 3.4375 15.5375 2.4625C14.5625 1.4875 13.3834 1 12 1C10.6167 1 9.43755 1.4875 8.46255 2.4625C7.88524 3.0398 7.47885 3.68869 7.24337 4.40915L9.00005 6.16582V6C9.00005 5.16667 9.29171 4.45833 9.87505 3.875C10.4584 3.29167 11.1667 3 12 3C12.8334 3 13.5417 3.29167 14.125 3.875C14.7084 4.45833 15 5.16667 15 6V8H10.8342L20 17.1658Z" fill="currentColor"/>
</svg>

<svg xmlns="http://www.w3.org/2000/svg" width="24" height="24" fill="currentColor" viewBox="0 0 24 24">
  <path d="M6 22c-.55 0-1.02-.196-1.412-.587A1.926 1.926 0 0 1 4 20V10c0-.55.196-1.02.588-1.412a1.98 1.98 0 0 1 .702-.463L1.333 4.167a1 1 0 0 1 1.414-1.414L7 7.006v-.012l13 13v.012l1.247 1.247a1 1 0 1 1-1.414 1.414l-.896-.896A1.935 1.935 0 0 1 18 22H6Zm14-4.834V10c0-.55-.196-1.02-.587-1.412A1.926 1.926 0 0 0 18 8h-1V6c0-1.383-.488-2.563-1.463-3.538C14.563 1.487 13.383 1 12 1s-2.562.488-3.537 1.462a4.876 4.876 0 0 0-1.22 1.947L9 6.166V6c0-.833.292-1.542.875-2.125A2.893 2.893 0 0 1 12 3c.833 0 1.542.292 2.125.875S15 5.167 15 6v2h-4.166L20 17.166Z"/>
</svg>
